X:98
T:Bobbing Joan
R:Triple Hornpipe
M:3/2
L:1/4
K:D
fd Ac d2 | fd Ac eg | fd Ac d2 | ec Ac eg :|
|:fa ag f2 | fa ag fa | ba gf e2 | ec Ac eg :|
%%vskip 1.5cm
